build/img/icon-mail.svg

<svg width="26" height="21" viewBox="0 0 26 21" fill="none" xmlns="http://www.w3.org/2000/svg">
<path d="M24.2273 0.117676H1.77273C0.768182 0.117676 0 0.882382 0 1.88238V18.353C0 19.353 0.768182 20.1177 1.77273 20.1177H24.2273C25.2318 20.1177 26 19.353 26 18.353V1.88238C26 0.882382 25.2318 0.117676 24.2273 0.117676ZM24.2273 17.1177L19.5591 12.4706C19.2045 12.1177 18.6727 12.1177 18.3182 12.4706C17.9636 12.8236 17.9636 13.353 18.3182 13.7059L22.9864 18.353H3.01362L7.68182 13.7059C8.03636 13.353 8.03636 12.8236 7.68182 12.4706C7.32727 12.1177 6.79547 12.1177 6.44092 12.4706L1.77273 17.1177V5.82353L12.4091 13.8236C12.5864 13.9412 12.7637 14 12.9409 14C13.1182 14 13.2954 13.9412 13.4727 13.8236L24.2273 5.82353V17.1177ZM24.2273 1.88238V3.58828L12.9409 11.9412L1.77273 3.58828V1.88238H24.2273Z" fill="#0AD9C6"/>
</svg>

<svg width="26" height="21" fill="none" xmlns="http://www.w3.org/2000/svg"><path d="M24.227.118H1.773C.768.118 0 .882 0 1.882v16.471c0 1 .768 1.765 1.773 1.765h22.454c1.005 0 1.773-.765 1.773-1.765V1.883c0-1-.768-1.765-1.773-1.765zm0 17L19.56 12.47a.86.86 0 00-1.24 0 .85.85 0 000 1.235l4.667 4.647H3.014l4.668-4.647a.85.85 0 000-1.235.86.86 0 00-1.241 0l-4.668 4.647V5.824l10.636 8a.956.956 0 00.532.176.956.956 0 00.532-.176l10.754-8v11.294zm0-15.236v1.706l-11.286 8.353L1.773 3.588V1.882h22.454z" fill="#0AD9C6"/></svg>
